icons/svg/twitter-retweet.svg

﻿<?xml version="1.0" encoding="utf-8"?>
<!DOCTYPE svg PUBLIC "-//W3C//DTD SVG 1.1//EN" "http://www.w3.org/Graphics/SVG/1.1/DTD/svg11.dtd">
<svg xmlns="http://www.w3.org/2000/svg" xmlns:xlink="http://www.w3.org/1999/xlink" version="1.1" baseProfile="full" width="24" height="24" viewBox="0 0 24.00 24.00" enable-background="new 0 0 24.00 24.00" xml:space="preserve">
	<path fill="#000000" fill-opacity="1" stroke-linejoin="round" d="M 6.00001,5.75L 10.25,10L 7,10L 6.99999,16L 13.5,16L 15.5,18L 6.99999,18C 5.89542,18 5,17.1046 5,16L 5,10L 1.75001,10L 6.00001,5.75 Z M 18,18.25L 13.75,14L 17,14L 17,8L 10.5,8.00001L 8.5,6L 17,6C 18.1046,6 19,6.89543 19,8L 19,14L 22.25,14L 18,18.25 Z "/>
</svg>

<svg xmlns="http://www.w3.org/2000/svg" version="1.1" baseProfile="full" width="24" height="24" viewBox="0 0 24.00 24.00" xml:space="preserve"><path fill="#000" fill-opacity="1" stroke-linejoin="round" d="M6 5.75L10.25 10H7v6h6.5l2 2H7c-1.105 0-2-.895-2-2v-6H1.75L6 5.75zm12 12.5L13.75 14H17V8h-6.5l-2-2H17c1.105 0 2 .895 2 2v6h3.25L18 18.25z"/></svg>
